X:517
T:The Triumph
M:2/4
L:1/8
Q:1/8=350
K:G
G2|dB Bd|cB cA|Gg fg|e3 g|dB Bd|cB cA|GB AG|G2:||
z2|A3 c|B2 d2|A3 c|B2 d2|A3 c|Bd ge|dc BA|G2:||
GA|B3 d|dc BA|B2 d2|dc BA|B2 d2|ef ge|dc BA|G2 GA|
B3 d|dc BA|B2 d2|dc BA|GA Bc|de fg|fg af|ag fe||
dB Bd|cB cA|Gg fg|e3 g|dB Bd|cB cA|GB AG|G2:||
